docs/img/GreatOne.svg

<svg width="81" height="14" viewBox="0 0 81 14" fill="none" xmlns="http://www.w3.org/2000/svg">
<path d="M11.4434 11.418C10.9688 11.9453 10.2744 12.3701 9.36035 12.6924C8.44629 13.0146 7.44434 13.1758 6.35449 13.1758C4.67871 13.1758 3.33984 12.6631 2.33789 11.6377C1.33594 10.6123 0.799805 9.18555 0.729492 7.35742L0.720703 6.25C0.720703 4.99023 0.943359 3.8916 1.38867 2.9541C1.83398 2.01074 2.46973 1.28711 3.2959 0.783203C4.12793 0.273438 5.08887 0.0185547 6.17871 0.0185547C7.77246 0.0185547 9.00879 0.384766 9.8877 1.11719C10.7725 1.84375 11.2881 2.93066 11.4346 4.37793H8.46387C8.3584 3.66309 8.12988 3.15332 7.77832 2.84863C7.42676 2.54395 6.92871 2.3916 6.28418 2.3916C5.51074 2.3916 4.91309 2.71973 4.49121 3.37598C4.06934 4.03223 3.85547 4.96973 3.84961 6.18848V6.96191C3.84961 8.23926 4.06641 9.2002 4.5 9.84473C4.93945 10.4834 5.62793 10.8027 6.56543 10.8027C7.36816 10.8027 7.96582 10.624 8.3584 10.2666V8.28027H6.21387V6.16211H11.4434V11.418Z" fill="#62D0DF"/>
<path d="M19.3925 6.1709L18.417 6.10059C17.4853 6.10059 16.8877 6.39355 16.624 6.97949V13H13.6621V3.49023H16.4394L16.5361 4.71191C17.0341 3.78027 17.7285 3.31445 18.6191 3.31445C18.9355 3.31445 19.2109 3.34961 19.4453 3.41992L19.3925 6.1709Z" fill="#62D0DF"/>
<path d="M25.4257 13.1758C23.9667 13.1758 22.7861 12.7422 21.8837 11.875C20.9814 11.002 20.5302 9.86816 20.5302 8.47363V8.22754C20.5302 7.25488 20.7089 6.39648 21.0663 5.65234C21.4296 4.9082 21.957 4.33398 22.6484 3.92969C23.3398 3.51953 24.1601 3.31445 25.1093 3.31445C26.4452 3.31445 27.4999 3.73047 28.2734 4.5625C29.0468 5.38867 29.4335 6.54297 29.4335 8.02539V9.17676H23.5448C23.6503 9.70996 23.8818 10.1289 24.2392 10.4336C24.5966 10.7383 25.0595 10.8906 25.6279 10.8906C26.5654 10.8906 27.2978 10.5625 27.8251 9.90625L29.1786 11.5059C28.8095 12.0156 28.2851 12.4229 27.6054 12.7275C26.9316 13.0264 26.205 13.1758 25.4257 13.1758ZM25.0917 5.59961C24.2245 5.59961 23.7089 6.17383 23.5448 7.32227H26.5331V7.09375C26.5448 6.61914 26.4247 6.25293 26.1728 5.99512C25.9208 5.73145 25.5605 5.59961 25.0917 5.59961Z" fill="#62D0DF"/>
<path d="M36.5302 13C36.4247 12.8066 36.3309 12.5225 36.2489 12.1475C35.704 12.833 34.9423 13.1758 33.9638 13.1758C33.0673 13.1758 32.3055 12.9062 31.6786 12.3672C31.0516 11.8223 30.7382 11.1396 30.7382 10.3193C30.7382 9.28809 31.119 8.50879 31.8807 7.98145C32.6425 7.4541 33.7499 7.19043 35.203 7.19043H36.1171V6.68945C36.1171 5.81641 35.7391 5.37988 34.9833 5.37988C34.2802 5.37988 33.9286 5.72559 33.9286 6.41699H30.9667C30.9667 5.49707 31.3563 4.75 32.1356 4.17578C32.9208 3.60156 33.9198 3.31445 35.1327 3.31445C36.3456 3.31445 37.3036 3.61035 38.0067 4.20215C38.7098 4.79395 39.0702 5.60547 39.0878 6.63672V10.8467C39.0995 11.7197 39.2343 12.3877 39.4921 12.8506V13H36.5302ZM34.6757 11.0664C35.0448 11.0664 35.3495 10.9873 35.5897 10.8291C35.8358 10.6709 36.0116 10.4922 36.1171 10.293V8.77246H35.2557C34.2245 8.77246 33.7089 9.23535 33.7089 10.1611C33.7089 10.4307 33.7997 10.6504 33.9813 10.8203C34.163 10.9844 34.3944 11.0664 34.6757 11.0664Z" fill="#62D0DF"/>
<path d="M44.7254 1.12598V3.49023H46.2899V5.54688H44.7254V9.89746C44.7254 10.2549 44.7899 10.5039 44.9188 10.6445C45.0477 10.7852 45.3026 10.8555 45.6834 10.8555C45.9764 10.8555 46.2225 10.8379 46.4217 10.8027V12.9209C45.8885 13.0908 45.3319 13.1758 44.7518 13.1758C43.7323 13.1758 42.9793 12.9355 42.493 12.4551C42.0067 11.9746 41.7635 11.2451 41.7635 10.2666V5.54688H40.5506V3.49023H41.7635V1.12598H44.7254Z" fill="#62D0DF"/>
<path d="M58.9764 6.86523C58.9764 8.11328 58.7449 9.21777 58.282 10.1787C57.8191 11.1396 57.16 11.8809 56.3045 12.4023C55.4549 12.918 54.4852 13.1758 53.3953 13.1758C52.3055 13.1758 51.3387 12.9268 50.4949 12.4287C49.6512 11.9248 48.992 11.207 48.5174 10.2754C48.0486 9.34375 47.8025 8.27441 47.7791 7.06738V6.34668C47.7791 5.09277 48.0076 3.98828 48.4646 3.0332C48.9275 2.07227 49.5867 1.33105 50.4422 0.80957C51.3035 0.288086 52.282 0.0273438 53.3777 0.0273438C54.4617 0.0273438 55.4285 0.285156 56.2781 0.800781C57.1277 1.31641 57.7869 2.05176 58.2557 3.00684C58.7303 3.95605 58.9705 5.0459 58.9764 6.27637V6.86523ZM55.8387 6.3291C55.8387 5.05762 55.6248 4.09375 55.1971 3.4375C54.7752 2.77539 54.1688 2.44434 53.3777 2.44434C51.8309 2.44434 51.0135 3.60449 50.9256 5.9248L50.9168 6.86523C50.9168 8.11914 51.1248 9.08301 51.5408 9.75684C51.9568 10.4307 52.575 10.7676 53.3953 10.7676C54.1746 10.7676 54.7752 10.4365 55.1971 9.77441C55.6189 9.1123 55.8328 8.16016 55.8387 6.91797V6.3291Z" fill="#62D0DF"/>
<path d="M63.6912 3.49023L63.7879 4.60645C64.4441 3.74512 65.3494 3.31445 66.5037 3.31445C67.4939 3.31445 68.2322 3.61035 68.7185 4.20215C69.2107 4.79395 69.4656 5.68457 69.4832 6.87402V13H66.5125V6.99707C66.5125 6.5166 66.4158 6.16504 66.2224 5.94238C66.0291 5.71387 65.6775 5.59961 65.1677 5.59961C64.5877 5.59961 64.157 5.82812 63.8757 6.28516V13H60.9138V3.49023H63.6912Z" fill="#62D0DF"/>
<path d="M76.2722 13.1758C74.8132 13.1758 73.6325 12.7422 72.7302 11.875C71.8279 11.002 71.3767 9.86816 71.3767 8.47363V8.22754C71.3767 7.25488 71.5554 6.39648 71.9128 5.65234C72.2761 4.9082 72.8034 4.33398 73.4948 3.92969C74.1862 3.51953 75.0066 3.31445 75.9558 3.31445C77.2917 3.31445 78.3464 3.73047 79.1198 4.5625C79.8933 5.38867 80.28 6.54297 80.28 8.02539V9.17676H74.3913C74.4968 9.70996 74.7282 10.1289 75.0857 10.4336C75.4431 10.7383 75.906 10.8906 76.4743 10.8906C77.4118 10.8906 78.1443 10.5625 78.6716 9.90625L80.0251 11.5059C79.656 12.0156 79.1316 12.4229 78.4519 12.7275C77.778 13.0264 77.0515 13.1758 76.2722 13.1758ZM75.9382 5.59961C75.071 5.59961 74.5554 6.17383 74.3913 7.32227H77.3796V7.09375C77.3913 6.61914 77.2712 6.25293 77.0193 5.99512C76.7673 5.73145 76.407 5.59961 75.9382 5.59961Z" fill="#62D0DF"/>
</svg>

<svg width="81" height="14" fill="none" xmlns="http://www.w3.org/2000/svg"><path d="M11.443 11.418c-.474.527-1.169.952-2.083 1.274-.914.323-1.916.484-3.006.484-1.675 0-3.014-.513-4.016-1.538C1.336 10.612.8 9.186.729 7.358L.721 6.25c0-1.26.222-2.358.668-3.296.445-.943 1.08-1.667 1.907-2.17.832-.51 1.793-.765 2.883-.765 1.593 0 2.83.366 3.709 1.098.885.727 1.4 1.814 1.547 3.26H8.464c-.106-.714-.334-1.224-.686-1.528-.351-.305-.85-.457-1.494-.457-.773 0-1.37.328-1.793.984-.422.656-.636 1.594-.641 2.812v.774c0 1.277.216 2.238.65 2.883.44.638 1.128.958 2.065.958.803 0 1.4-.179 1.793-.536V8.28H6.214V6.162h5.23v5.256zm7.949-5.248l-.975-.07c-.932 0-1.53.294-1.793.88V13h-2.962V3.49h2.777l.097 1.222c.498-.932 1.192-1.398 2.083-1.398.317 0 .592.036.826.106l-.053 2.75zm6.034 7.006c-1.46 0-2.64-.434-3.542-1.301-.903-.873-1.354-2.007-1.354-3.401v-.246c0-.973.179-1.832.536-2.576a3.955 3.955 0 011.582-1.722c.692-.41 1.512-.616 2.461-.616 1.336 0 2.39.416 3.164 1.248.774.827 1.16 1.981 1.16 3.463v1.152h-5.888c.105.533.337.952.694 1.257.358.304.82.457 1.389.457.937 0 1.67-.329 2.197-.985l1.354 1.6c-.37.51-.894.917-1.574 1.221-.673.3-1.4.449-2.18.449zM25.092 5.6c-.867 0-1.383.574-1.547 1.722h2.988v-.228c.012-.475-.108-.841-.36-1.099-.252-.264-.612-.395-1.081-.395zM36.53 13c-.105-.193-.2-.477-.281-.852-.545.685-1.307 1.028-2.285 1.028-.897 0-1.658-.27-2.285-.809-.627-.545-.94-1.227-.94-2.048 0-1.03.38-1.81 1.142-2.338.761-.527 1.869-.79 3.322-.79h.914v-.502c0-.873-.378-1.31-1.134-1.31-.703 0-1.054.347-1.054 1.038h-2.962c0-.92.39-1.667 1.169-2.241.785-.574 1.784-.862 2.997-.862 1.213 0 2.17.296 2.874.888.703.592 1.063 1.403 1.08 2.435v4.21c.012.873.147 1.54.405 2.004V13H36.53zm-1.854-1.934c.369 0 .673-.079.914-.237.246-.158.422-.337.527-.536v-1.52h-.861c-1.032 0-1.547.462-1.547 1.388 0 .27.09.49.272.66.182.163.413.245.695.245zm10.049-9.94V3.49h1.565v2.057h-1.565v4.35c0 .358.065.607.194.748.129.14.384.21.764.21.293 0 .54-.017.739-.052v2.118c-.533.17-1.09.255-1.67.255-1.02 0-1.773-.24-2.259-.72-.486-.481-.73-1.21-.73-2.19v-4.72h-1.212V3.49h1.212V1.126h2.962zm14.251 5.739c0 1.248-.231 2.353-.694 3.314-.463.96-1.122 1.702-1.977 2.223-.85.516-1.82.774-2.91.774s-2.056-.25-2.9-.747c-.844-.504-1.503-1.222-1.978-2.154-.468-.931-.715-2-.738-3.208v-.72c0-1.254.229-2.359.686-3.314.462-.96 1.122-1.702 1.977-2.223.861-.522 1.84-.783 2.936-.783 1.084 0 2.05.258 2.9.774.85.515 1.509 1.25 1.978 2.206.474.949.715 2.039.72 3.27v.588zM55.84 6.33c0-1.271-.214-2.235-.642-2.891-.422-.663-1.028-.994-1.82-.994-1.546 0-2.364 1.16-2.451 3.48l-.01.941c0 1.254.209 2.218.625 2.892.416.674 1.034 1.01 1.854 1.01.78 0 1.38-.33 1.802-.993.422-.662.636-1.614.642-2.856V6.33zm7.851-2.84l.097 1.116c.656-.86 1.561-1.292 2.716-1.292.99 0 1.728.296 2.215.888.492.592.747 1.483.764 2.672V13h-2.97V6.997c0-.48-.097-.832-.29-1.055-.194-.228-.546-.342-1.055-.342-.58 0-1.011.228-1.292.685V13h-2.962V3.49h2.777zm12.581 9.686c-1.459 0-2.64-.434-3.542-1.301-.902-.873-1.353-2.007-1.353-3.401v-.246c0-.973.178-1.832.536-2.576a3.955 3.955 0 011.582-1.722c.691-.41 1.512-.616 2.46-.616 1.337 0 2.391.416 3.165 1.248.773.827 1.16 1.981 1.16 3.463v1.152h-5.889c.106.533.337.952.695 1.257.357.304.82.457 1.388.457.938 0 1.67-.329 2.198-.985l1.353 1.6c-.369.51-.893.917-1.573 1.221-.674.3-1.4.449-2.18.449zM75.938 5.6c-.867 0-1.383.574-1.547 1.722h2.989v-.228c.011-.475-.109-.841-.36-1.099-.253-.264-.613-.395-1.082-.395z" fill="#62D0DF"/></svg>
